dist/img/icon-social-tg.svg

<svg width="16" height="13" viewBox="0 0 16 13" fill="none" xmlns="http://www.w3.org/2000/svg">
<path d="M14.5474 0.0644551C14.7936 -0.0442692 15.2666 -0.0460371 15.2941 0.303118C15.2639 0.715917 15.159 1.11811 15.095 1.5256C14.3465 5.25582 13.5565 8.97779 12.7251 12.6915C12.6228 12.8382 12.4966 12.9965 12.2993 13C12.0584 12.9699 11.869 12.8064 11.677 12.6782C10.4911 11.8703 9.29552 11.0748 8.11233 10.2642C7.49007 10.8388 6.85358 11.3903 6.24555 11.9773C6.07842 12.1337 5.90063 12.3759 5.6384 12.3194C5.43394 12.2089 5.38594 11.9605 5.29971 11.7651C4.8339 10.4392 4.4321 9.08239 4.01607 7.73527C2.98845 7.34191 1.95283 6.96624 0.920765 6.58615C0.597189 6.46151 0.214054 6.36428 0.0344868 6.03811C-0.0792982 5.8295 0.110047 5.60674 0.288725 5.51393C0.749199 5.2735 1.25323 5.13295 1.73504 4.94202C6.01175 3.33061 10.2778 1.69355 14.5474 0.0644551ZM12.0584 2.566C9.61376 4.15532 7.16768 5.74081 4.72012 7.32247L4.69789 7.36136C5.05347 8.53346 5.40016 9.70733 5.76463 10.875C5.86152 10.0989 5.96908 9.3237 6.07665 8.54937C8.23856 6.45621 10.3981 4.36128 12.5553 2.26458C12.3812 2.35102 12.2146 2.45185 12.0575 2.566H12.0584Z" fill="#2C3D52"/>
</svg>

<svg xmlns="http://www.w3.org/2000/svg" width="16" height="13" fill="none" viewBox="0 0 16 13"><path fill="#2C3D52" d="M14.547.064c.247-.108.72-.11.747.24-.03.412-.135.814-.199 1.222a514 514 0 0 1-2.37 11.165c-.102.147-.228.305-.426.309-.24-.03-.43-.194-.622-.322-1.186-.808-2.381-1.603-3.565-2.414-.622.575-1.258 1.126-1.866 1.713-.168.157-.345.399-.608.342-.204-.11-.252-.359-.338-.554-.466-1.326-.868-2.683-1.284-4.03-1.028-.393-2.063-.769-3.095-1.149-.324-.124-.707-.222-.887-.548-.113-.208.076-.431.255-.524.46-.24.964-.381 1.446-.572C6.012 3.331 10.278 1.694 14.547.064m-2.489 2.502A3180 3180 0 0 1 4.72 7.322l-.022.04c.355 1.171.702 2.345 1.067 3.513.097-.776.204-1.551.312-2.326q3.243-3.14 6.478-6.284-.261.13-.498.301z"/></svg>
